X:1
T:Amid the Fears That Oppress Our Day
T:Amid the Fears That Oppress Our Day
T:Ronald Alan Matthews, 1989
T:Margaret Clarkson, 1966
T:Words © 1966 Hope Publishing Co. Music © 1990 RAM Music Publications.
T:Words © 1966 Hope Publishing Co. Music © 1990 RAM Music Publications.
C:Ronald Alan Matthews, 1989
Z:Words © 1966 Hope Publishing Co. Music © 1990 RAM Music Publications.
%%score ( 1 2 ) ( 3 4 )
L:1/8
Q:1/4=107
M:4/4
K:Ab
V:1 treble 
V:2 treble 
V:3 bass 
V:4 bass 
V:1
 C2 | [CF]2 [EG]2 [FA]2 [EA][EG] | [CF]2 =D2 [C=E]2 C2 | [CF]2 [CG]2 [CA]2 [FA][FB] | %4
w: 1.~A-|mid the fears that op-|press our day, A-|cross the clouds that ob-|
w: 2.~Though|wars may rise, and though|king- doms fall, Though|ills may threat- en, and|
w: 3.~Though|fierce the fight ’gainst the|hosts of wrong, His|Word is sure, and His|
w: 4.~When|Christ shall come to re-|ceive His own, When|His the king- dom, the|
 [Ac]2 F2 =E2 [Ac]2 | [Fd]2 [Ac]2 [EB]2 [EA][EB] | c2 [GB]2 [FA]2 [_Ec]2 | %7
w: scure our way, One|gold- en truth sheds its|shin- ing ray— Our|
w: fears en- thrall, Our|God still lives, and He|hears our call— Our|
w: arm is strong; The|day is His: raise His|tri- umph song— Our|
w: pow’r, the throne, E-|ter- nal King He shall|reign a- lone— Our|
 [FB]2 [FA]2 [EA]2 [EG]2 | [CF]6 ||[K:F]"^Refrain" [FA]2 | [FB]2 G2 [FA]2 [FA][FB] | %11
w: God is sov- ereign|still.|||
w: God is sov- ereign|still.|His|ho- ly pur- pose un-|
w: God is sov- ereign|still.|||
w: God is sov- ereign|still.|||
 [Fc]2 F2 E2 [Fc]2 | [Fd]2 [FB]2 [Fc]2 [Gc][GB] | [FA]2 [F=B]2 [Ec]2 [DF]2 | %14
w: |||
w: chang- ing stands, The|stars still turn at their|Lord’s com- mands; He|
w: |||
w: |||
 [EG]2 [FA]2 [DB]2 [DB][DA] | [EG]2 [DF]2 [EG]2 c2 | [Dd]2 [Ec]2 [Fc]2 [GB]2 | [FA]6 [Fc]2 | %18
w: ||||
w: holds the world in His|might- y hands— Our|God is sov- ereign|still! Our|
w: ||||
w: ||||
 [FB]2 [FA]2 [FA]2 [EG]2 | [CF]6 |] %20
w: ||
w: God is sov- ereign|still!|
w: ||
w: ||
V:2
 C2 | x8 | x2 =D2 C2 x2 | x8 | x2 F2 =E2 x2 | x8 | (=EF) x6 | x8 | x6 ||[K:F] x2 | x2 G2 x4 | %11
 x2 F2 E2 x2 | x8 | x8 | x8 | x6 (F_E) | x8 | x8 | x8 | x6 |] %20
V:3
 [C,C]2 | [F,A,]2 [E,B,]2 [D,C]2 [E,B,][E,B,] | [F,A,]2 [B,,B,]2 [C,G,]2 [B,,G,]2 | %3
 [A,,F,]2 [C,=E,]2 F,2 [D,D][D,D] | [A,,E]2 [B,,A,]2 [C,G,]2 [A,,E]2 | %5
 [B,,B,]2 A,2 [E,G,]2 [E,F,][E,G,] | G,2 [=E,C]2 [F,C]2 [A,C]2 | [D,D]2 [D,C]2 [E,B,]2 [E,B,]2 | %8
 [F,=A,]6 ||[K:F] [F,C]2 | [D,D]2 [E,C]2 [F,C]2 [D,D][D,D] | [A,,C]2 [B,,A,]2 [C,G,]2 [F,A,]2 | %12
 [B,,B,]2 [D,B,]2 [F,A,]2 [E,C][C,C] | C2 [D,G,]2 [C,C]2 [D,A,]2 | %14
 [C,C]2 [F,C]2 [B,,D]2 [G,,B,][G,,B,] | [C,C]2 [D,A,]2 C2 [A,,F,]2 | %16
 [B,,F,]2 [C,A,]2 [D,B,]2 [E,C]2 | [F,C]6 [_E,A,]2 | [D,B,]2 [C,C]2 [B,,D]2 [C,G,]2 | [F,A,]6 |] %20
V:4
 x2 | x8 | x8 | x4 F,2 x2 | x8 | x2 C,D, x4 | (C,=D,) x6 | x8 | x6 ||[K:F] x2 | x8 | x8 | x8 | %13
 F,E, x6 | x8 | x4 (C,B,,) x2 | x8 | x8 | x8 | x6 |] %20

